fs/pulse_24_filled.svg

<svg viewBox="0 0 24 24" fill="none" xmlns="http://www.w3.org/2000/svg" height="1em" width="1em">
  <path d="M8.47096 7.23691L11.5265 20.2289C11.7601 21.222 13.1561 21.2689 13.4558 20.2938L16.4005 10.7135L16.7855 12.2411C16.8975 12.6853 17.2971 12.9966 17.7552 12.9966H21C21.5523 12.9966 22 12.5489 22 11.9966C22 11.4444 21.5523 10.9966 21 10.9966H18.5344L17.4655 6.75559C17.2182 5.77452 15.8372 5.7391 15.5399 6.7062L12.6284 16.1784L9.47522 2.77106C9.23523 1.75064 7.78658 1.7401 7.53177 2.75693L5.46696 10.9966H3C2.44772 10.9966 2 11.4444 2 11.9966C2 12.5489 2.44772 12.9966 3 12.9966H6.24729C6.70595 12.9966 7.10581 12.6846 7.2173 12.2397L8.47096 7.23691Z" fill="#212121"/>
</svg>

<svg viewBox="0 0 24 24" fill="none" xmlns="http://www.w3.org/2000/svg" height="1em" width="1em">
  <path d="m8.471 7.237 3.056 12.992c.233.993 1.63 1.04 1.929.065l2.945-9.58.384 1.527a1 1 0 0 0 .97.756H21a1 1 0 1 0 0-2h-2.466l-1.069-4.241c-.247-.981-1.628-1.017-1.925-.05l-2.912 9.472L9.475 2.771c-.24-1.02-1.688-1.03-1.943-.014l-2.065 8.24H3a1 1 0 0 0 0 2h3.247a1 1 0 0 0 .97-.757l1.254-5.003Z" fill="#212121"/>
</svg>
